X: 3263
T: The NIGHTINGALE
%R: jig
B: James Kerr "Merry Melodies" v.3 p.29 #263
Z: 2016 John Chambers <jc:trillian.mit.edu>
M: 6/8
L: 1/8
K: G
|:\
G2D G2B | d2g d2B | c2A B2G | AFD D3 |\
G2D G2B | d2g d2B | AcB cAF | G3  G3 :|
|:\
d2g d2B | c2e c2A | B2d B2G | AFD D3 |\
d2g d2B | c2e c2B | AcB cAF | G3  G3 :|

%%sep 1 1 500
%%sep 1 1 500

